X:1
T:Title
%%score 1 2
L:1/8
Q:1/4=75
M:4/4
K:G
V:1 treble nm="Strings 1, Soprano"
V:2 bass nm="Strings 1, Bass"
V:1
 z4 z [B,D][DG][DG] | [DG]3 [CE] [B,D]B,C[CE] | [B,D]4- [B,D][B,D][DG][DG] | %3
w: 1.~I~ do~ not~|ask~ to~ live~ a~ life~ of~|ease,~ * I~ do~ not~|
 [FA]3 [DF] [^CE]2 [B,D]2 | [DB] [DB]3- [DB][DG]D[DG] | [GB]3 [GB] [Gd][G^c][A=c][GB] | %6
w: ask~ for~ wealth~ or~|hon or,~ * I~ do~ not~|ask~ to~ do~ as~ I~ would~|
 [CE]4- [CE][EA][EG][CE] | [B,D]4- [B,D]DFA | [Fc]6 z [Ac] | dddd dcBA | G4- G[B,D]B,[B,D] | %11
w: please;~ * I~ on ly~|ask~ * that~ when~ I~|die~ My~|ti tle~ may~ be~ clear~ to~ reign~ on~|high.~ * * * *|
 [DG]3 [DG] [FA][DF][CE]D | [DB]4- [DB][DG][DA][DB] | [Fc]3 [FA] [DF]2 D2 | %14
w: |||
 [DB] [DG]3- [DG]D[DG][GB] | [Bd]3 [_B^c] [A=c][G=B][EA]E | E4- E[EA][EG][CE] | [B,D]4- [B,D]DFA | %18
w: |||* * that~ when~ I~|
 [Fc]6 z [Ac] | dddd dcBA | G6 z2 |] %21
w: die~ My~|ti tle~ may~ be~ clear~ to~ reign~ on~|high.~|
V:2
 z4 z [G,,G,][G,,G,][B,,G,] | [D,B,]3 [C,C] [D,G,][D,G,][E,G,][C,G,] | %2
 [G,,G,]4- [G,,G,][G,,G,][G,,G,][B,,G,] | [D,D]3 [D,A,] [E,A,]2 [F,B,]2 | %4
 [G,B,] [G,B,]3- [G,B,][G,B,][G,B,][G,D] | [G,D]3 [D,D] [G,,G,][G,,G,][A,,F,][B,,G,] | %6
 [C,C]4- [C,C][C,C][C,G,][C,G,] | [D,G,]4- [D,G,]D,F,A, | [D,C]6 z [D,C] | %9
 [D,D][F,D][K:treble][A,D][CD] DCB,[K:bass]A, | G,4- G,[D,G,][D,G,][B,,G,] | %11
 [G,,G,]3 [D,B,] [D,C][D,A,][E,A,][F,A,] | [G,B,]4- [G,B,][G,B,][F,A,][D,G,] | %13
 [D,A,]3 [D,A,] [D,C]2 [D,C]2 | [G,B,] [G,B,]3- [G,B,][G,B,][G,B,][D,D] | %15
 [G,,G,]3 [G,,G,] [A,,F,][B,,G,][C,A,][C,E,] | [C,C]4- [C,C][C,C][C,G,][C,G,] | %17
 [D,G,]4- [D,G,]D,F,A, | [D,C]6 z [D,C] | [D,D][F,D][K:treble][A,D][CD] DCB,A, | G,6 z2 |] %21

